_includes/icons/color-ubuntu.svg

<svg fill="#666" height="50" viewBox="0 0 48 48" width="50" xmlns="http://www.w3.org/2000/svg"><path d="m40 24c0 8.8-7.2 16-16 16s-16-7.2-16-16 7.2-16 16-16 16 7.2 16 16z" fill="#fff"/><g fill="#e64a19"><path d="m30 24c0 3.3-2.7 6-6 6s-6-2.7-6-6 2.7-6 6-6 6 2.7 6 6z"/><path d="m12 21.5c1.4 0 2.5 1.1 2.5 2.5s-1.1 2.5-2.5 2.5-2.5-1.1-2.5-2.5 1.1-2.5 2.5-2.5m0-1c-1.9 0-3.5 1.6-3.5 3.5s1.6 3.5 3.5 3.5 3.5-1.6 3.5-3.5-1.6-3.5-3.5-3.5z"/><path d="m30 31.5c1.4 0 2.5 1.1 2.5 2.5s-1.1 2.5-2.5 2.5-2.5-1.1-2.5-2.5 1.1-2.5 2.5-2.5m0-1c-1.9 0-3.5 1.6-3.5 3.5s1.6 3.5 3.5 3.5 3.5-1.6 3.5-3.5-1.6-3.5-3.5-3.5z"/><path d="m24 4c-11 0-20 9-20 20s9 20 20 20 20-9 20-20-9-20-20-20zm8.5 30c0 1.4-1.1 2.5-2.5 2.5s-2.5-1.1-2.5-2.5c0-.2 0-.5.1-.7-1.1.5-2.3.7-3.6.7-5.1 0-9.2-3.8-9.9-8.7-.4.7-1.2 1.2-2.1 1.2-1.4 0-2.5-1.1-2.5-2.5s1.1-2.5 2.5-2.5c.9 0 1.7.5 2.1 1.2.7-4.9 4.8-8.7 9.9-8.7 1.3 0 2.5.2 3.6.7-.1-.2-.1-.4-.1-.7 0-1.4 1.1-2.5 2.5-2.5s2.5 1.1 2.5 2.5c0 1.2-.8 2.2-2 2.4 2.2 1.9 3.5 4.6 3.5 7.6s-1.3 5.7-3.5 7.6c1.2.2 2 1.2 2 2.4z"/><path d="m30 11.5c1.4 0 2.5 1.1 2.5 2.5s-1.1 2.5-2.5 2.5-2.5-1.1-2.5-2.5 1.1-2.5 2.5-2.5m0-1c-1.9 0-3.5 1.6-3.5 3.5s1.6 3.5 3.5 3.5 3.5-1.6 3.5-3.5-1.6-3.5-3.5-3.5z"/><path d="m24 24c-2.6-4.1-5.2-8.1-7.8-12.2"/><path d="m19.1 10.7h2v14.4h-2z" transform="matrix(.84370077 -.53681376 .53681376 .84370077 -6.469037 13.603926)"/><path d="m24 23h14.4v2h-14.4z"/><path d="m24 24c-2.7 4-5.3 8-8 12"/><path d="m12.8 29h14.4v2h-14.4z" transform="matrix(.55467017 -.83207031 .83207031 .55467017 -16.061396 30.002309)"/></g></svg>

<svg xmlns="http://www.w3.org/2000/svg" viewBox="0 0 48 48" width="50" height="50" fill="#666"><path d="M40,24c0,8.8-7.2,16-16,16S8,32.8,8,24S15.2,8,24,8S40,15.2,40,24z" fill="#fff"/><path d="M30,24c0,3.3-2.7,6-6,6c-3.3,0-6-2.7-6-6s2.7-6,6-6C27.3,18,30,20.7,30,24z" fill="#e64a19"/><path d="M12,21.5c1.4,0,2.5,1.1,2.5,2.5s-1.1,2.5-2.5,2.5S9.5,25.4,9.5,24S10.6,21.5,12,21.5 M12,20.5 c-1.9,0-3.5,1.6-3.5,3.5s1.6,3.5,3.5,3.5s3.5-1.6,3.5-3.5S13.9,20.5,12,20.5z" fill="#e64a19"/><path d="M30,31.5c1.4,0,2.5,1.1,2.5,2.5s-1.1,2.5-2.5,2.5s-2.5-1.1-2.5-2.5S28.6,31.5,30,31.5 M30,30.5 c-1.9,0-3.5,1.6-3.5,3.5s1.6,3.5,3.5,3.5s3.5-1.6,3.5-3.5S31.9,30.5,30,30.5z" fill="#e64a19"/><path d="M24,4C13,4,4,13,4,24s9,20,20,20s20-9,20-20S35,4,24,4z M32.5,34c0,1.4-1.1,2.5-2.5,2.5 s-2.5-1.1-2.5-2.5c0-0.2,0-0.5,0.1-0.7C26.5,33.8,25.3,34,24,34c-5.1,0-9.2-3.8-9.9-8.7c-0.4,0.7-1.2,1.2-2.1,1.2 c-1.4,0-2.5-1.1-2.5-2.5s1.1-2.5,2.5-2.5c0.9,0,1.7,0.5,2.1,1.2c0.7-4.9,4.8-8.7,9.9-8.7c1.3,0,2.5,0.2,3.6,0.7 c-0.1-0.2-0.1-0.4-0.1-0.7c0-1.4,1.1-2.5,2.5-2.5s2.5,1.1,2.5,2.5c0,1.2-0.8,2.2-2,2.4C32.7,18.3,34,21,34,24s-1.3,5.7-3.5,7.6 C31.7,31.8,32.5,32.8,32.5,34z" fill="#e64a19"/><path d="M30,11.5c1.4,0,2.5,1.1,2.5,2.5c0,1.4-1.1,2.5-2.5,2.5s-2.5-1.1-2.5-2.5 C27.5,12.6,28.6,11.5,30,11.5 M30,10.5c-1.9,0-3.5,1.6-3.5,3.5s1.6,3.5,3.5,3.5s3.5-1.6,3.5-3.5S31.9,10.5,30,10.5z" fill="#e64a19"/><g fill="#e64a19"><path d="M24,24c-2.6-4.1-5.2-8.1-7.8-12.2"/><path transform="rotate(-32.467 20.127 17.911)" d="M19.1 10.7H21.1V25.1H19.1z"/></g><path fill="#e64a19" d="M24 23H38.4V25H24z"/><g fill="#e64a19"><path d="M24,24c-2.7,4-5.3,8-8,12"/><path transform="rotate(-56.312 19.998 30.006)" d="M12.8 29H27.200000000000003V31H12.8z"/></g></svg>
